X:6
O:Macedoine
M:2/4
L:1/8
K:D
{g} a2 ab | a>g g>f | {e} f2 fg | f>e e>d | d2 de | fg gf | f4 | fe fg ||
{g} a2 ab | a>g g>f | {e} f2 fg | f>e e>d | d2 de | f>e e>d | d4- | d4 :|
{d} e2 e>d | {e} f2 f>e | {f} g2 g>f | {a} a2 a>g |
f2 f>g | f>e e>d |1 d>c d>e | d>e fA :|2 d4 | ed d2 ||
